X:394
T:Salty Dog Blues
C:Tim O'Brien
N:
R:bluegrass
L:1/8
Q:1/4=240
M:4/4
K:A
z8 | z2 EE F2 A2 | "A"[e=c][e^c] [ec][ec] [e2c2] [ec][ec] | "F#"[fd][fc] [fc][fc] [f2c2] c^d | 
"B"BF Bc ^dc de | fe fg ag fe | "E"gf eg fe df | ed Bd BA GB | "A"AF EF EC B,C | 
A,2 EE EF AB | "A"ce c=c BA ^A^c | "F#"fc ef cB ^Ac | "B"BA Bc ^dc de | fe fg ag fe | 
"E"=g^g =g^g ef ed | Bd BA GE FG | "A"AG Ac BA GB | A8 | 


